TileServer und Tiles/svg/9/107_59.svg

<?xml version='1.0' encoding='UTF-8' standalone='no'?>
<svg xmlns="http://www.w3.org/2000/svg" width="497pt" viewBox="0 0 497 279" xmlns:xlink="http://www.w3.org/1999/xlink" height="279pt">
 <defs style="stroke:none;" overflow="visible">
  <path id="glyph0-5" d="M 0.328125 0 L 2.25 -9.125 L 3.328125 -9.125 L 2.546875 -5.5 C 2.410156 -4.851562 2.289062 -4.351562 2.1875 -4 C 2.09375 -3.65625 2.023438 -3.429688 1.984375 -3.328125 L 2 -3.328125 L 5.046875 -6.4375 L 6.296875 -6.4375 L 3.546875 -3.671875 L 5.25 0 L 4.09375 0 L 2.734375 -3.015625 L 1.875 -2.328125 L 1.390625 0 Z M 0.328125 0 "/>
  <path id="glyph0-4" d="M 2.21875 0.125 C 1.789062 0.125 1.425781 0.0195312 1.125 -0.1875 C 0.832031 -0.394531 0.6875 -0.757812 0.6875 -1.28125 C 0.6875 -1.539062 0.722656 -1.828125 0.796875 -2.140625 L 1.53125 -5.625 L 0.53125 -5.625 L 0.625 -6.109375 L 1.703125 -6.5625 L 2.453125 -7.890625 L 3.078125 -7.890625 L 2.75 -6.4375 L 4.375 -6.4375 L 4.203125 -5.625 L 2.59375 -5.625 L 1.84375 -2.125 C 1.820312 -2.019531 1.796875 -1.898438 1.765625 -1.765625 C 1.742188 -1.640625 1.734375 -1.519531 1.734375 -1.40625 C 1.734375 -1.21875 1.785156 -1.0625 1.890625 -0.9375 C 1.992188 -0.8125 2.15625 -0.75 2.375 -0.75 C 2.519531 -0.75 2.660156 -0.757812 2.796875 -0.78125 C 2.929688 -0.8125 3.078125 -0.851562 3.234375 -0.90625 L 3.234375 -0.09375 C 3.128906 -0.0507812 2.976562 -0.00390625 2.78125 0.046875 C 2.582031 0.0976562 2.394531 0.125 2.21875 0.125 Z M 2.21875 0.125 "/>
  <path id="glyph0-3" d="M 2.3125 0.125 C 1.800781 0.125 1.382812 -0.0625 1.0625 -0.4375 C 0.738281 -0.8125 0.578125 -1.359375 0.578125 -2.078125 C 0.578125 -2.671875 0.65625 -3.238281 0.8125 -3.78125 C 0.96875 -4.320312 1.1875 -4.796875 1.46875 -5.203125 C 1.75 -5.617188 2.078125 -5.945312 2.453125 -6.1875 C 2.835938 -6.425781 3.265625 -6.546875 3.734375 -6.546875 C 4.160156 -6.546875 4.503906 -6.429688 4.765625 -6.203125 C 5.023438 -5.984375 5.222656 -5.726562 5.359375 -5.4375 L 5.40625 -5.4375 L 5.796875 -6.4375 L 6.59375 -6.4375 L 5.234375 0 L 4.390625 0 L 4.546875 -1.1875 L 4.5 -1.1875 C 4.226562 -0.832031 3.90625 -0.523438 3.53125 -0.265625 C 3.164062 -0.00390625 2.757812 0.125 2.3125 0.125 Z M 2.65625 -0.75 C 2.957031 -0.75 3.25 -0.859375 3.53125 -1.078125 C 3.8125 -1.296875 4.066406 -1.585938 4.296875 -1.953125 C 4.523438 -2.328125 4.707031 -2.738281 4.84375 -3.1875 C 4.90625 -3.425781 4.941406 -3.640625 4.953125 -3.828125 C 4.972656 -4.023438 4.984375 -4.207031 4.984375 -4.375 C 4.984375 -4.75 4.878906 -5.054688 4.671875 -5.296875 C 4.472656 -5.535156 4.195312 -5.65625 3.84375 -5.65625 C 3.53125 -5.65625 3.238281 -5.554688 2.96875 -5.359375 C 2.707031 -5.171875 2.476562 -4.90625 2.28125 -4.5625 C 2.082031 -4.226562 1.925781 -3.84375 1.8125 -3.40625 C 1.707031 -2.976562 1.65625 -2.523438 1.65625 -2.046875 C 1.65625 -1.617188 1.742188 -1.296875 1.921875 -1.078125 C 2.097656 -0.859375 2.34375 -0.75 2.65625 -0.75 Z M 2.65625 -0.75 "/>
  <path id="glyph0-2" d="M 2.5625 -7.5 C 2.382812 -7.5 2.242188 -7.546875 2.140625 -7.640625 C 2.035156 -7.742188 1.984375 -7.882812 1.984375 -8.0625 C 1.984375 -8.269531 2.046875 -8.445312 2.171875 -8.59375 C 2.296875 -8.75 2.46875 -8.828125 2.6875 -8.828125 C 3.050781 -8.828125 3.234375 -8.648438 3.234375 -8.296875 C 3.234375 -8.046875 3.160156 -7.847656 3.015625 -7.703125 C 2.878906 -7.566406 2.726562 -7.5 2.5625 -7.5 Z M 0.34375 0 L 1.703125 -6.4375 L 2.765625 -6.4375 L 1.390625 0 Z M 0.34375 0 "/>
  <path id="glyph0-1" d="M 0.484375 0 L 2.296875 -8.5625 L 3.375 -8.5625 L 2.484375 -4.40625 L 3.234375 -5.203125 L 6.515625 -8.5625 L 7.8125 -8.5625 L 4.09375 -4.796875 L 6.125 0 L 4.9375 0 L 3.28125 -4.15625 L 2.28125 -3.421875 L 1.5625 0 Z M 0.484375 0 "/>
  <path id="glyph0-0" d="M 1.125 0 L 1.125 -8.5625 L 6.0625 -8.5625 L 6.0625 0 Z M 1.734375 -0.609375 L 5.453125 -0.609375 L 5.453125 -7.953125 L 1.734375 -7.953125 Z M 1.734375 -0.609375 "/>
 </defs>
 <image width="497" xlink:href="svg/9/107_59.jpg" height="279"/>
 <g>
  <path d="M 259.667969 81.449219 L 261.480469 72.886719 L 262.558594 72.886719 L 261.667969 77.042969 L 262.417969 76.246094 L 265.699219 72.886719 L 266.996094 72.886719 L 263.277344 76.652344 L 265.308594 81.449219 L 264.121094 81.449219 L 262.464844 77.292969 L 261.464844 78.027344 L 260.746094 81.449219 Z M 259.667969 81.449219 " transform=" rotate(  340 276.285 78.4496) " style="fill:none;stroke-width:2;stroke-linecap:butt;stroke-linejoin:round;stroke:rgb(100%,100%,100%);stroke-opacity:0.6;stroke-miterlimit:10;"/>
  <path d="M 268.492188 73.949219 C 268.3125 73.949219 268.171875 73.902344 268.070312 73.808594 C 267.964844 73.707031 267.914062 73.566406 267.914062 73.386719 C 267.914062 73.179688 267.976562 73.003906 268.101562 72.855469 C 268.226562 72.699219 268.398438 72.621094 268.617188 72.621094 C 268.980469 72.621094 269.164062 72.800781 269.164062 73.152344 C 269.164062 73.402344 269.089844 73.601562 268.945312 73.746094 C 268.808594 73.882812 268.65625 73.949219 268.492188 73.949219 Z M 266.273438 81.449219 L 267.632812 75.011719 L 268.695312 75.011719 L 267.320312 81.449219 Z M 266.273438 81.449219 " transform=" rotate(  340 276.285 78.4496) " style="fill:none;stroke-width:2;stroke-linecap:butt;stroke-linejoin:round;stroke:rgb(100%,100%,100%);stroke-opacity:0.6;stroke-miterlimit:10;"/>
  <path d="M 271.335938 81.574219 C 270.824219 81.574219 270.40625 81.386719 270.085938 81.011719 C 269.761719 80.636719 269.601562 80.089844 269.601562 79.371094 C 269.601562 78.777344 269.679688 78.210938 269.835938 77.667969 C 269.992188 77.128906 270.210938 76.652344 270.492188 76.246094 C 270.773438 75.832031 271.101562 75.503906 271.476562 75.261719 C 271.859375 75.023438 272.289062 74.902344 272.757812 74.902344 C 273.183594 74.902344 273.527344 75.019531 273.789062 75.246094 C 274.046875 75.464844 274.246094 75.722656 274.382812 76.011719 L 274.429688 76.011719 L 274.820312 75.011719 L 275.617188 75.011719 L 274.257812 81.449219 L 273.414062 81.449219 L 273.570312 80.261719 L 273.523438 80.261719 C 273.25 80.617188 272.929688 80.925781 272.554688 81.183594 C 272.1875 81.445312 271.78125 81.574219 271.335938 81.574219 Z M 271.679688 80.699219 C 271.980469 80.699219 272.273438 80.589844 272.554688 80.371094 C 272.835938 80.152344 273.089844 79.863281 273.320312 79.496094 C 273.546875 79.121094 273.730469 78.710938 273.867188 78.261719 C 273.929688 78.023438 273.964844 77.808594 273.976562 77.621094 C 273.996094 77.425781 274.007812 77.242188 274.007812 77.074219 C 274.007812 76.699219 273.902344 76.394531 273.695312 76.152344 C 273.496094 75.914062 273.21875 75.792969 272.867188 75.792969 C 272.554688 75.792969 272.261719 75.894531 271.992188 76.089844 C 271.730469 76.277344 271.5 76.542969 271.304688 76.886719 C 271.105469 77.222656 270.949219 77.605469 270.835938 78.042969 C 270.730469 78.472656 270.679688 78.925781 270.679688 79.402344 C 270.679688 79.832031 270.765625 80.152344 270.945312 80.371094 C 271.121094 80.589844 271.367188 80.699219 271.679688 80.699219 Z M 271.679688 80.699219 " transform=" rotate(  340 276.285 78.4496) " style="fill:none;stroke-width:2;stroke-linecap:butt;stroke-linejoin:round;stroke:rgb(100%,100%,100%);stroke-opacity:0.6;stroke-miterlimit:10;"/>
  <path d="M 278.058594 81.574219 C 277.628906 81.574219 277.265625 81.46875 276.964844 81.261719 C 276.671875 81.054688 276.527344 80.691406 276.527344 80.167969 C 276.527344 79.910156 276.5625 79.621094 276.636719 79.308594 L 277.371094 75.824219 L 276.371094 75.824219 L 276.464844 75.339844 L 277.542969 74.886719 L 278.292969 73.558594 L 278.917969 73.558594 L 278.589844 75.011719 L 280.214844 75.011719 L 280.042969 75.824219 L 278.433594 75.824219 L 277.683594 79.324219 C 277.660156 79.429688 277.636719 79.550781 277.605469 79.683594 C 277.582031 79.808594 277.574219 79.929688 277.574219 80.042969 C 277.574219 80.230469 277.625 80.386719 277.730469 80.511719 C 277.832031 80.636719 277.996094 80.699219 278.214844 80.699219 C 278.359375 80.699219 278.5 80.691406 278.636719 80.667969 C 278.769531 80.636719 278.917969 80.597656 279.074219 80.542969 L 279.074219 81.355469 C 278.96875 81.398438 278.816406 81.445312 278.621094 81.496094 C 278.421875 81.546875 278.234375 81.574219 278.058594 81.574219 Z M 278.058594 81.574219 " transform=" rotate(  340 276.285 78.4496) " style="fill:none;stroke-width:2;stroke-linecap:butt;stroke-linejoin:round;stroke:rgb(100%,100%,100%);stroke-opacity:0.6;stroke-miterlimit:10;"/>
  <path d="M 282.136719 81.574219 C 281.625 81.574219 281.207031 81.386719 280.886719 81.011719 C 280.5625 80.636719 280.402344 80.089844 280.402344 79.371094 C 280.402344 78.777344 280.480469 78.210938 280.636719 77.667969 C 280.792969 77.128906 281.011719 76.652344 281.292969 76.246094 C 281.574219 75.832031 281.902344 75.503906 282.277344 75.261719 C 282.660156 75.023438 283.089844 74.902344 283.558594 74.902344 C 283.984375 74.902344 284.328125 75.019531 284.589844 75.246094 C 284.847656 75.464844 285.046875 75.722656 285.183594 76.011719 L 285.230469 76.011719 L 285.621094 75.011719 L 286.417969 75.011719 L 285.058594 81.449219 L 284.214844 81.449219 L 284.371094 80.261719 L 284.324219 80.261719 C 284.050781 80.617188 283.730469 80.925781 283.355469 81.183594 C 282.988281 81.445312 282.582031 81.574219 282.136719 81.574219 Z M 282.480469 80.699219 C 282.78125 80.699219 283.074219 80.589844 283.355469 80.371094 C 283.636719 80.152344 283.890625 79.863281 284.121094 79.496094 C 284.347656 79.121094 284.53125 78.710938 284.667969 78.261719 C 284.730469 78.023438 284.765625 77.808594 284.777344 77.621094 C 284.796875 77.425781 284.808594 77.242188 284.808594 77.074219 C 284.808594 76.699219 284.703125 76.394531 284.496094 76.152344 C 284.296875 75.914062 284.019531 75.792969 283.667969 75.792969 C 283.355469 75.792969 283.0625 75.894531 282.792969 76.089844 C 282.53125 76.277344 282.300781 76.542969 282.105469 76.886719 C 281.90625 77.222656 281.75 77.605469 281.636719 78.042969 C 281.53125 78.472656 281.480469 78.925781 281.480469 79.402344 C 281.480469 79.832031 281.566406 80.152344 281.746094 80.371094 C 281.921875 80.589844 282.167969 80.699219 282.480469 80.699219 Z M 282.480469 80.699219 " transform=" rotate(  340 276.285 78.4496) " style="fill:none;stroke-width:2;stroke-linecap:butt;stroke-linejoin:round;stroke:rgb(100%,100%,100%);stroke-opacity:0.6;stroke-miterlimit:10;"/>
  <path d="M 286.96875 81.449219 L 288.890625 72.324219 L 289.96875 72.324219 L 289.1875 75.949219 C 289.050781 76.597656 288.929688 77.097656 288.828125 77.449219 C 288.734375 77.792969 288.664062 78.019531 288.625 78.121094 L 288.640625 78.121094 L 291.6875 75.011719 L 292.9375 75.011719 L 290.1875 77.777344 L 291.890625 81.449219 L 290.734375 81.449219 L 289.375 78.433594 L 288.515625 79.121094 L 288.03125 81.449219 Z M 286.96875 81.449219 " transform=" rotate(  340 276.285 78.4496) " style="fill:none;stroke-width:2;stroke-linecap:butt;stroke-linejoin:round;stroke:rgb(100%,100%,100%);stroke-opacity:0.6;stroke-miterlimit:10;"/>
  <g transform=" rotate(  340 276.285 78.4496) " style="fill:rgb(0%,0%,0%);fill-opacity:1;">
   <use xlink:href="#glyph0-1" y="81.449582" x="259.184727"/>
   <use xlink:href="#glyph0-2" y="81.449582" x="265.928727"/>
   <use xlink:href="#glyph0-3" y="81.449582" x="269.024727"/>
   <use xlink:href="#glyph0-4" y="81.449582" x="275.840727"/>
   <use xlink:href="#glyph0-3" y="81.449582" x="279.824727"/>
   <use xlink:href="#glyph0-5" y="81.449582" x="286.640727"/>
  </g>
 </g>
</svg>

<svg xmlns="http://www.w3.org/2000/svg" xmlns:xlink="http://www.w3.org/1999/xlink" viewBox="0 0 497 279"> <defs overflow="visible" style="stroke:none">  <path id="e" d="m.3 0 2-9.1h1l-.8 3.6A22.2 22.2 0 0 1 2-3.3l3-3.1h1.3L3.5-3.7 5.3 0H4L2.7-3l-.7.7L1.4 0Zm0 0"/>  <path id="d" d="M2.2.1c-.4 0-.8 0-1-.3-.5-.2-.6-.6-.6-1l.2-1.1.7-3.2h-1l.1-.6 1.1-.5.8-1.3H3l-.3 1.5h1.8l-.3.8H2.6l-.8 3.5V-1l.7.3h.3l.4-.3v.9l-.4.1-.6.1Zm0 0"/>  <path id="c" d="M2.3.1c-.5 0-1-.1-1.2-.5-.4-.4-.5-1-.5-1.7 0-.6 0-1.1.2-1.7l.7-1.4 1-1c.3-.2.8-.3 1.2-.3.5 0 .8 0 1 .3l.8.8.3-1h.8L5.2 0h-.8l.1-1.2-1 1a2 2 0 0 1-1.2.2Zm.4-.8c.3-.1.5-.3.8-.4.3-.2.6-.5.8-.9l.5-1.2.2-.6v-.6c0-.3-.1-.6-.3-.9-.2-.2-.5-.4-.9-.4-.3 0-.6.1-.8.3l-.7.8-.5 1.2L1.7-2c0 .4 0 .7.2 1 .2 0 .4.2.8.2Zm0-.1"/>  <path id="b" d="M2.6-7.5 2-7.6v-.5c0-.2 0-.3.2-.5.1-.2.3-.2.5-.2.3 0 .5.2.5.5s0 .5-.2.6l-.4.2ZM.3 0l1.4-6.4h1L1.5 0Zm0 0"/>  <path id="a" d="m.5 0 1.8-8.6h1l-.7 4.2.6-.8 3.3-3.4h1.3L4.1-4.8 6 0H5L3.3-4.2l-1 .8L1.6 0Zm0 0"/>  <path d="M1.1 0v-8.6h5V0Zm.6-.6h3.8V-8H1.7Zm0 0"/> </defs> <image xlink:href="svg/9/107_59.jpg" width="497" height="279"/> <path d="m259.7 81.4 1.8-8.4h1l-.7 4 .6-.8 3.3-3.2h1.3l-3.7 3.7 2 4.7h-1.2l-1.6-4.1-1 .7-.8 3.4Zm8.8-7.4-.5-.3-.1-.3c.1-.2.1-.4.2-.5.1-.2.3-.3.5-.3.4 0 .6.2.6.6 0 .2-.2.4-.3.5.1.3-.2.3-.4.3Zm-2.2 7.3 1.3-6.3h1.1l-1.4 6.4ZM271.3 81.6c-.5 0-.9-.2-1.2-.6-.3-.4-.5-1-.5-1.6 0-.6 0-1.2.2-1.7l.7-1.5 1-1c.4-.2.8-.2 1.3-.2.4-.1.7 0 1 .2l.6.8.4-1h.8l-1.3 6.4h-.9l.2-1.1-1.1.9a2 2 0 0 1-1.2.4Zm.4-.9.9-.3.7-.9.7-1.2v-1.2c0-.4 0-.7-.3-1.1-.2 0-.5-.1-.8-.1-.3-.1-.6-.1-1 .1l-.5.9-.6 1.1-.1 1.4c0 .4 0 .8.2 1 .2.2.5.3.8.3Zm6.3.9c-.3 0-.6-.1-1-.3-.3-.3-.5-.6-.5-1.1l.1-.9.8-3.5h-1v-.5l1.2-.3.7-1.4h.6l-.3 1.4h1.6l-.2.8h-1.6l-.7 3.5v.4l-.2.3.2.5.5.2h.4l.5-.2v.9l-.5.1h-.5Zm4.1 0c-.5 0-.9-.2-1.1-.6-.4-.4-.6-1-.6-1.6 0-.6 0-1.2.2-1.7l.7-1.5 1-1c.4-.2.7-.2 1.3-.2.4-.1.7 0 1 .2l.6.8.4-1h.8l-1.3 6.4h-.9l.2-1.1-1.1.9a2 2 0 0 1-1.3.4Zm.4-.9.9-.3.6-.9.7-1.2v-.7l.2-.5c-.1-.4-.2-.7-.4-1.1-.2 0-.5-.1-.8-.1-.3-.1-.7-.1-1 .1l-.5.9-.6 1.1-.1 1.4c0 .4 0 .8.2 1 .3.2.5.3.8.3Zm4.5.7 1.9-9h1l-.6 3.4a22.2 22.2 0 0 1-.7 2.3l3-3h1.4l-2.8 2.6 1.7 3.7h-1.2l-1.3-3-.9.7-.5 2.3Zm0 0" style="fill:none;stroke-width:2;stroke-linecap:butt;stroke-linejoin:round;stroke:#fff;stroke-opacity:.6;stroke-miterlimit:10" transform=" rotate(  340 276.285 78.4496) "/> <g style="fill:#000;fill-opacity:1" transform=" rotate(  340 276.285 78.4496) ">  <use xlink:href="#a" x="259.2" y="81.4"/>  <use xlink:href="#b" x="265.9" y="81.4"/>  <use xlink:href="#c" x="269" y="81.4"/>  <use xlink:href="#d" x="275.8" y="81.4"/>  <use xlink:href="#c" x="279.8" y="81.4"/>  <use xlink:href="#e" x="286.6" y="81.4"/> </g></svg>
